Adwaita++/mimetypes/scalable/application-json.svg

<svg height="256" viewBox="0 0 67.73 67.73" width="256" xmlns="http://www.w3.org/2000/svg" xmlns:xlink="http://www.w3.org/1999/xlink">
  <filter id="filter16020-3" color-interpolation-filters="sRGB" height="1.021433" width="1.027265" x="-.013633" y="-.010717">
    <feGaussianBlur stdDeviation="2.0004419"/>
  </filter>
  <linearGradient id="linearGradient3005" gradientTransform="matrix(.99884 0 0 .998699 689.00774 -388.84375)" gradientUnits="userSpaceOnUse" x1="-666.117" x2="-553.27002" xlink:href="#linearGradient8385" y1="413.04501" y2="525.90802"/>
  <linearGradient id="linearGradient8385">
    <stop offset="0" stop-color="#3b3b3b"/>
    <stop offset="1" stop-color="#fff"/>
  </linearGradient>
  <linearGradient id="linearGradient3002" gradientTransform="matrix(.99884 0 0 .998699 689.00774 -388.84375)" gradientUnits="userSpaceOnUse" x1="-553.27002" x2="-666.11603" xlink:href="#linearGradient8385" y1="525.90802" y2="413.04501"/>
  <g enable-background="new" stroke-width=".25" transform="matrix(.13297834 0 0 .13297834 .605824 28.61487660106)">
    <path d="m111.82842-178.55025h200l120.17158 119.671571.005 296.240039c.00031 17.728-14.44878 32.08839-32.17678 32.08839h-288c-17.72799 0-31.999992-14.272-31.999992-32v-384c0-17.728 14.272002-32 31.999992-32z" filter="url(#filter16020-3)" opacity=".4"/>
    <path d="m111.82842-179.67158h200l120.17158 119.67158.005 296.24003c.00031 17.728-14.44878 32.08839-32.17678 32.08839h-288c-17.727992 0-31.999992-14.272-31.999992-32v-384c0-17.728 14.272-32 31.999992-32z" fill="#f6f5f4"/>
    <path d="m311.82842-175.69243v88.000007c0 17.728 14.44211 31.693795 32.17011 31.693795l88.00147-.022223v-3.979149z" opacity=".25"/>
    <path d="m311.82842-179.67158v88.000008c0 17.728 14.44211 31.693795 32.17011 31.693795l88.00147-.022223z" fill="#deddda"/>
    <g enable-background="new" fill-rule="evenodd" transform="matrix(1.49225431581 0 0 1.49225431581 136.53626826034 -75.0519180258)">
      <path d="m79.8646 119.09957c35.39768 48.25534 70.03957-13.46852 69.98868-50.58675-.0602-43.88605-44.54091-68.41369-70.01768-68.41369-40.89242 0-79.8356 33.79608-79.8356 80.03589 0 51.396 44.64038 79.86497 79.8356 79.86497-7.96447-1.14675-34.5062-6.83395-34.86292-67.96677-.23987-41.3466 13.48757-57.86551 34.80527-50.59905.47743.17707 23.51392 9.26451 23.51392 38.95053 0 29.55992-23.42727 38.71487-23.42727 38.71487z" fill="url(#linearGradient3005)"/>
      <path d="m79.82327 41.40081c-23.39005-8.06188-52.04302 11.21581-52.04302 49.82881 0 63.04798 46.72055 68.77037 52.38416 68.77037 40.89242 0 79.83559-33.79608 79.83559-80.03589 0-51.396-44.64038-79.86497-79.83559-79.86497 9.74811-1.35 52.54087 10.54991 52.54087 69.0368 0 38.14117-31.95286 58.90496-52.73547 50.03344-.47743-.17707-23.51392-9.26451-23.51392-38.95053 0-29.55992 23.36738-38.81803 23.36738-38.81803z" fill="url(#linearGradient3002)"/>
    </g>
  </g>
</svg>

<?xml version="1.0" encoding="UTF-8" standalone="no"?>
<svg
   xmlns:dc="http://purl.org/dc/elements/1.1/"
   xmlns:cc="http://creativecommons.org/ns#"
   xmlns:rdf="http://www.w3.org/1999/02/22-rdf-syntax-ns#"
   xmlns:svg="http://www.w3.org/2000/svg"
   xmlns="http://www.w3.org/2000/svg"
   xmlns:xlink="http://www.w3.org/1999/xlink"
   xmlns:sodipodi="http://sodipodi.sourceforge.net/DTD/sodipodi-0.dtd"
   xmlns:inkscape="http://www.inkscape.org/namespaces/inkscape"
   width="256"
   height="256"
   version="1.1"
   viewBox="0 0 67.73 67.73"
   id="svg37"
   sodipodi:docname="application-json.svg"
   inkscape:version="0.92.3 (2405546, 2018-03-11)">
  <metadata
     id="metadata41">
    <rdf:RDF>
      <cc:Work
         rdf:about="">
        <dc:format>image/svg+xml</dc:format>
        <dc:type
           rdf:resource="http://purl.org/dc/dcmitype/StillImage" />
        <dc:title></dc:title>
      </cc:Work>
    </rdf:RDF>
  </metadata>
  <sodipodi:namedview
     pagecolor="#ffffff"
     bordercolor="#666666"
     borderopacity="1"
     objecttolerance="10"
     gridtolerance="10"
     guidetolerance="10"
     inkscape:pageopacity="0"
     inkscape:pageshadow="2"
     inkscape:window-width="1920"
     inkscape:window-height="1009"
     id="namedview39"
     showgrid="true"
     inkscape:zoom="3.6304347"
     inkscape:cx="130.91866"
     inkscape:cy="125"
     inkscape:window-x="0"
     inkscape:window-y="34"
     inkscape:window-maximized="1"
     inkscape:current-layer="g1867">
    <inkscape:grid
       type="xygrid"
       id="grid1676" />
  </sodipodi:namedview>
  <defs
     id="defs17">
    <linearGradient
       id="linearGradient4226"
       x1="529.655"
       x2="-35.31"
       y1="401.584"
       y2="119.093"
       gradientTransform="matrix(0 -.11988932 .11988589 0 .36278001 292.54831)"
       gradientUnits="userSpaceOnUse">
      <stop
         style="stop-color:#f2f2f2"
         offset="0"
         id="stop2" />
      <stop
         style="stop-color:#f9f9f9"
         offset="1"
         id="stop4" />
    </linearGradient>
    <linearGradient
       id="linearGradient4358"
       x1="88"
       x2="488"
       y1="88"
       y2="488"
       gradientUnits="userSpaceOnUse">
      <stop
         style="stop-color:#000000;stop-opacity:.58823532"
         offset="0"
         id="stop7" />
      <stop
         style="stop-color:#000000;stop-opacity:0"
         offset=".88"
         id="stop9" />
      <stop
         style="stop-color:#000000"
         offset="1"
         id="stop11" />
    </linearGradient>
    <filter
       id="filter4346"
       x="-.01"
       y="-.01"
       width="1.026"
       height="1.022"
       style="color-interpolation-filters:sRGB">
      <feGaussianBlur
         stdDeviation="2.12"
         id="feGaussianBlur14" />
    </filter>
    <filter
       inkscape:collect="always"
       style="color-interpolation-filters:sRGB"
       id="filter16020-3"
       x="-0.013632531"
       width="1.0272651"
       y="-0.010716653"
       height="1.0214334">
      <feGaussianBlur
         inkscape:collect="always"
         stdDeviation="2.0004419"
         id="feGaussianBlur16022-6" />
    </filter>
    <filter
       id="filter4346-3"
       x="-0.0099999998"
       y="-0.0099999998"
       width="1.026"
       height="1.022"
       style="color-interpolation-filters:sRGB">
      <feGaussianBlur
         stdDeviation="2.12"
         id="feGaussianBlur14-6" />
    </filter>
    <linearGradient
       id="linearGradient4226-5"
       x1="529.65503"
       x2="-35.310001"
       y1="401.58401"
       y2="119.093"
       gradientTransform="matrix(0,-0.11988932,-0.11988589,0,67.016455,292.5483)"
       gradientUnits="userSpaceOnUse">
      <stop
         style="stop-color:#76c22b"
         offset="0"
         id="stop2-6" />
      <stop
         style="stop-color:#a6d74f"
         offset="1"
         id="stop4-2" />
    </linearGradient>
    <linearGradient
       id="linearGradient3005"
       x1="-666.117"
       x2="-553.27002"
       y1="413.04501"
       y2="525.90802"
       gradientTransform="matrix(0.99884,0,0,0.998699,689.00774,-388.84375)"
       gradientUnits="userSpaceOnUse"
       xlink:href="#linearGradient8385" />
    <linearGradient
       id="linearGradient8385">
      <stop
         style="stop-color:#3b3b3b"
         offset="0"
         id="stop3" />
      <stop
         style="stop-color:#ffffff"
         offset="1"
         id="stop5" />
    </linearGradient>
    <linearGradient
       id="linearGradient3002"
       x1="-553.27002"
       x2="-666.11603"
       y1="525.90802"
       y2="413.04501"
       gradientTransform="matrix(0.99884,0,0,0.998699,689.00774,-388.84375)"
       gradientUnits="userSpaceOnUse"
       xlink:href="#linearGradient8385" />
  </defs>
  <g
     transform="matrix(0.13297834,0,0,0.13297834,0.60582436,28.614877)"
     style="display:inline;stroke-width:0.25;enable-background:new"
     id="g17498">
    <g
       transform="translate(0,-3.4178172e-6)"
       style="display:inline;stroke-width:0.25;enable-background:new"
       id="g17498-7">
      <path
         style="display:inline;opacity:0.4;fill:#000000;fill-opacity:1;stroke:none;stroke-width:0.5;stroke-linejoin:round;stroke-miterlimit:4;stroke-dasharray:none;stroke-opacity:1;filter:url(#filter16020-3);enable-background:new"
         clip-path="none"
         d="m 111.82842,-178.55025 h 200 L 432,-58.878679 432.005,237.36136 c 3.1e-4,17.728 -14.44878,32.08839 -32.17678,32.08839 h -288 c -17.72799,0 -31.999992,-14.272 -31.999992,-32 v -384 c 0,-17.728 14.272002,-32 31.999992,-32 z"
         id="path6869-5"
         inkscape:connector-curvature="0"
         sodipodi:nodetypes="sccssssss" />
      <path
         sodipodi:nodetypes="sccssssss"
         inkscape:connector-curvature="0"
         id="rect2069-3"
         d="m 111.82842,-179.67158 h 200 L 432,-60 l 0.005,296.24003 c 3.1e-4,17.728 -14.44878,32.08839 -32.17678,32.08839 h -288 c -17.727992,0 -31.999992,-14.272 -31.999992,-32 v -384 c 0,-17.728 14.272,-32 31.999992,-32 z"
         clip-path="none"
         style="display:inline;opacity:1;fill:#f6f5f4;fill-opacity:1;stroke:none;stroke-width:0.5;stroke-linejoin:round;stroke-miterlimit:4;stroke-dasharray:none;stroke-opacity:1;enable-background:new" />
      <path
         inkscape:connector-curvature="0"
         style="display:inline;opacity:0.25;vector-effect:none;fill:#000000;fill-opacity:1;stroke:none;stroke-width:0.5;stroke-linecap:butt;stroke-linejoin:round;stroke-miterlimit:4;stroke-dasharray:none;stroke-dashoffset:0;stroke-opacity:1;enable-background:new"
         d="m 311.82842,-175.69243 v 88.000007 c 0,17.728 14.44211,31.693795 32.17011,31.693795 L 432,-56.020851 V -60 Z"
         id="path836"
         sodipodi:nodetypes="cscccc" />
      <path
         sodipodi:nodetypes="csccc"
         id="rect26812-5"
         d="m 311.82842,-179.67158 v 88.000008 c 0,17.728 14.44211,31.693795 32.17011,31.693795 L 432,-60 Z"
         style="display:inline;opacity:1;vector-effect:none;fill:#deddda;fill-opacity:1;stroke:none;stroke-width:0.5;stroke-linecap:butt;stroke-linejoin:round;stroke-miterlimit:4;stroke-dasharray:none;stroke-dashoffset:0;stroke-opacity:1;enable-background:new"
         inkscape:connector-curvature="0" />
      <g
         transform="matrix(7.5200217,0,0,7.5200217,-389.9314,-1927.6428)"
         id="g37">
        <g
           id="g1867"
           transform="matrix(0.04817267,0,0,0.04817267,77.449785,249.32059)">
          <g
             transform="matrix(4.1192963,0,0,4.1192963,-154.46494,-61.572888)"
             style="enable-background:new"
             id="g40">
            <path
               inkscape:connector-curvature="0"
               d="m 79.8646,119.09957 c 35.39768,48.25534 70.03957,-13.46852 69.98868,-50.58675 C 149.79308,24.62677 105.31237,0.09913 79.8356,0.09913 38.94318,0.09913 0,33.89521 0,80.13502 c 0,51.396 44.64038,79.86497 79.8356,79.86497 -7.96447,-1.14675 -34.5062,-6.83395 -34.86292,-67.96677 -0.23987,-41.3466 13.48757,-57.86551 34.80527,-50.59905 0.47743,0.17707 23.51392,9.26451 23.51392,38.95053 0,29.55992 -23.42727,38.71487 -23.42727,38.71487 z"
               style="fill:url(#linearGradient3005);fill-rule:evenodd"
               id="path36" />
            <path
               inkscape:connector-curvature="0"
               d="M 79.82327,41.40081 C 56.43322,33.33893 27.78025,52.61662 27.78025,91.22962 c 0,63.04798 46.72055,68.77037 52.38416,68.77037 C 121.05683,159.99999 160,126.20391 160,79.9641 160,28.5681 115.35962,0.09913 80.16441,0.09913 c 9.74811,-1.35 52.54087,10.54991 52.54087,69.0368 0,38.14117 -31.95286,58.90496 -52.73547,50.03344 -0.47743,-0.17707 -23.51392,-9.26451 -23.51392,-38.95053 0,-29.55992 23.36738,-38.81803 23.36738,-38.81803 z"
               style="fill:url(#linearGradient3002);fill-rule:evenodd"
               id="path38" />
          </g>
        </g>
      </g>
    </g>
  </g>
</svg>
